build/images/html-logo.svg

<?xml version="1.0" encoding="UTF-8"?>
<svg xmlns="http://www.w3.org/2000/svg" xmlns:xlink="http://www.w3.org/1999/xlink" width="82pt" height="82pt" viewBox="0 0 82 82" version="1.1">
<g id="surface1">
<path style=" stroke:none;fill-rule:nonzero;fill:rgb(0%,0%,0%);fill-opacity:1;" d="M 17.359375 0 L 21.042969 0 L 21.042969 3.652344 L 24.441406 3.652344 L 24.441406 0 L 28.125 0 L 28.125 11.050781 L 24.441406 11.050781 L 24.441406 7.367188 L 21.078125 7.367188 L 21.078125 11.050781 L 17.359375 11.050781 M 32.992188 3.683594 L 29.742188 3.683594 L 29.742188 0 L 39.941406 0 L 39.941406 3.683594 L 36.675781 3.683594 L 36.675781 11.050781 L 32.992188 11.050781 M 41.5625 0 L 45.421875 0 L 47.789062 3.890625 L 50.160156 0 L 54.019531 0 L 54.019531 11.050781 L 50.335938 11.050781 L 50.335938 5.574219 L 47.757812 9.546875 L 45.179688 5.574219 L 45.179688 11.050781 L 41.558594 11.050781 M 55.847656 0 L 59.53125 0 L 59.53125 7.398438 L 64.75 7.398438 L 64.75 11.050781 L 55.847656 11.050781 "/>
<path style=" stroke:none;fill-rule:nonzero;fill:rgb(89.411765%,30.196078%,14.901961%);fill-opacity:1;" d="M 17.234375 75.433594 L 11.949219 16.113281 L 70.050781 16.113281 L 64.765625 75.402344 L 40.953125 82 "/>
<path style=" stroke:none;fill-rule:nonzero;fill:rgb(94.509804%,39.607843%,16.078431%);fill-opacity:1;" d="M 41 76.953125 L 41 20.980469 L 64.75 20.980469 L 60.21875 71.589844 "/>
<path style=" stroke:none;fill-rule:nonzero;fill:rgb(92.156863%,92.156863%,92.156863%);fill-opacity:1;" d="M 22.742188 28.234375 L 41 28.234375 L 41 35.507812 L 30.71875 35.507812 L 31.390625 42.953125 L 41 42.953125 L 41 50.210938 L 24.726562 50.210938 M 25.046875 53.859375 L 32.351562 53.859375 L 32.863281 59.675781 L 41 61.851562 L 41 69.445312 L 26.074219 65.28125 "/>
<path style=" stroke:none;fill-rule:nonzero;fill:rgb(100%,100%,100%);fill-opacity:1;" d="M 59.195312 28.234375 L 40.96875 28.234375 L 40.96875 35.507812 L 58.519531 35.507812 M 57.863281 42.953125 L 40.96875 42.953125 L 40.96875 50.226562 L 49.9375 50.226562 L 49.085938 59.675781 L 40.96875 61.851562 L 40.96875 69.410156 L 55.863281 65.28125 "/>
</g>
</svg>

<svg xmlns="http://www.w3.org/2000/svg" width="82pt" height="82pt" viewBox="0 0 82 82"><path d="M17.36 0h3.683v3.652h3.398V0h3.684v11.05h-3.684V7.368h-3.363v3.684H17.36m15.633-7.367h-3.25V0h10.2v3.684h-3.266v7.367h-3.684M41.562 0h3.86l2.367 3.89L50.16 0h3.86v11.05h-3.684V5.575l-2.578 3.973-2.578-3.973v5.477h-3.621M55.848 0h3.683v7.398h5.219v3.653h-8.902"/><path d="M17.234 75.434l-5.285-59.32h58.102l-5.285 59.288L40.953 82" fill="#e44d26"/><path d="M41 76.953V20.98h23.75l-4.531 50.61" fill="#f16529"/><path d="M22.742 28.234H41v7.274H30.719l.672 7.445H41v7.258H24.727m.32 3.648h7.305l.511 5.817L41 61.852v7.593l-14.926-4.164" fill="#ebebeb"/><path d="M59.195 28.234H40.97v7.274h17.55m-.656 7.445H40.97v7.274h8.968l-.851 9.449-8.117 2.176v7.558l14.894-4.129" fill="#fff"/></svg>
